svg/emoji_u1f93f.svg

<?xml version="1.0" encoding="UTF-8" standalone="no"?>
<!-- Generator: Adobe Illustrator 25.2.3, SVG Export Plug-In . SVG Version: 6.00 Build 0)  -->

<svg
   version="1.1"
   id="Layer_2"
   x="0px"
   y="0px"
   viewBox="0 0 128 128"
   style="enable-background:new 0 0 128 128;"
   xml:space="preserve"
   sodipodi:docname="emoji_u1f93f.svg"
   inkscape:version="1.2.2 (732a01da63, 2022-12-09)"
   xmlns:inkscape="http://www.inkscape.org/namespaces/inkscape"
   xmlns:sodipodi="http://sodipodi.sourceforge.net/DTD/sodipodi-0.dtd"
   xmlns="http://www.w3.org/2000/svg"
   xmlns:svg="http://www.w3.org/2000/svg"><defs
   id="defs7176" /><sodipodi:namedview
   id="namedview7174"
   pagecolor="#ffffff"
   bordercolor="#000000"
   borderopacity="0.25"
   inkscape:showpageshadow="2"
   inkscape:pageopacity="0.0"
   inkscape:pagecheckerboard="0"
   inkscape:deskcolor="#d1d1d1"
   showgrid="false"
   inkscape:zoom="2.9996795"
   inkscape:cx="37.003953"
   inkscape:cy="71.340954"
   inkscape:window-width="1366"
   inkscape:window-height="697"
   inkscape:window-x="-8"
   inkscape:window-y="-8"
   inkscape:window-maximized="1"
   inkscape:current-layer="Layer_2" />
<radialGradient
   id="SVGID_1_"
   cx="60.5283"
   cy="14.7923"
   r="72.9624"
   gradientUnits="userSpaceOnUse">
	<stop
   offset="0.5011"
   style="stop-color:#5C727D"
   id="stop7135" />
	<stop
   offset="0.8408"
   style="stop-color:#484D4F"
   id="stop7137" />
</radialGradient>

<path
   style="fill:#4485f6"
   d="m 69.84032,111.80348 c 0,0 11.03,-0.87 21.17,-10.41 15.45,-14.530004 20.07,-39.620004 21.4,-50.350004 1.6,-12.93 -2.17,-23.8 -2.17,-23.8 l 8.24,-2.75 c 0,0 3.77,10.8 2.17,29.41 -1.26,14.65 -8.24,40.51 -22.66,53.670004 -12.9,11.77 -29.29,13.5 -29.29,13.5 z"
   id="path7142" />
<path
   style="fill:#484d4f"
   d="m 110.58032,58.253476 c 0,0 1.98,0.59 3.32,0.92 2.17,0.53 6.15,1.46 6.51,2.25 0.74,1.65 -1.47,11.02 -3.07,11.14 -1.6,0.11 -5.26,-0.8 -6.64,-1.72 -1.38,-0.92 -0.12,-12.59 -0.12,-12.59 z"
   id="path7144" />
<path
   style="fill:#1664c0"
   d="m 84.35032,105.04348 c 0,0 -1.67,-1.13 -3.1,0 -1.41,1.11 -0.9,2.93 -0.06,4.48 0.84,1.55 3.88,5.97 4.78,6.75 0.9,0.78 2.24,0.82 3.06,0.33 1.57,-0.94 1.04,-2.73 1.04,-2.73 0,0 1.43,1.27 3.12,0.33 1.78,-0.99 1.17,-2.83 1.17,-2.83 0,0 1.76,0.94 3.29,-0.23 1.42,-1.09 1.07,-2.64 1.07,-2.64 0,0 1.63,0.62 3.09,-0.94 1.29,-1.38 0.49,-2.96 0.49,-2.96 0,0 1.33,0.49 2.38,-0.75 1.2,-1.43 0.33,-2.99 -0.33,-3.65 -0.66,-0.660004 -5.21,-5.280004 -7.06,-6.050004 -0.64,-0.27 -1.69,-0.32 -2.44,0.36 -1.19,1.07 -0.26,2.6 -0.26,2.6 0,0 -1.44,-0.95 -2.64,0.13 -1.25,1.13 -0.38,2.920004 -0.38,2.920004 0,0 -1.53,-1.440004 -3.05,-0.360004 -1.2,0.860004 -0.48,2.690004 -0.48,2.690004 0,0 -1.47,-1.27 -2.93,-0.18 -1.43,1.07 -0.76,2.73 -0.76,2.73 z"
   id="path7146" />
<path
   style="fill:#7fdafb"
   d="m 99.97032,9.3734758 c -0.24,1.7000002 6.29,16.3300002 6.61,17.0900002 0.52,1.24 3.76,4.79 8.9,2.49 4.39,-1.96 3.33,-6.82 3.14,-7.53 -0.72,-2.68 -5.17,-16.5600002 -6.81,-16.8900002 -1.37,-0.28 -11.65,3.46 -11.84,4.84 z"
   id="path7148" />
<path
   id="path7150"
   style="fill:#5c727f;stroke-width:0.999998"
   d="m 66.551148,122.4566 c 0.118816,0.45156 0.512396,0.78907 1.04293,0.66869 0.530533,-0.12036 7.625809,-2.10312 7.959128,-2.21422 0.33332,-0.11109 0.550038,-0.56386 0.375662,-1.22609 l -2.299312,-8.732 c -0.118897,-0.45154 -0.513056,-0.78889 -1.04359,-0.66852 -0.530533,0.12037 -7.625809,2.10313 -7.959128,2.21422 -0.33332,0.11111 -0.550087,0.56389 -0.375662,1.22609 z"
   sodipodi:nodetypes="sssssssss" />

<path
   style="fill:#4383f4"
   d="m 11.292942,45.098932 c 0,0 1.08,-7.01 4.409999,-10.13 2.5,-2.34 5.72,-3.28 9.42,-3.55 3.7,-0.28 59.89,-0.26 64.24,-0.18 5.08,0.09 9.38,2.9 11.549999,5.55 2.54,3.1 3.49,9.01 3.49,10.58 0,1.57 -9.129999,-9.01 -9.129999,-9.01 l -17.24,-1.7 -53.18,-0.81 z"
   id="path7154" />

<path
   style="fill:#5c727d;stroke-width:0.999999"
   d="m 57.948853,83.466533 c -3.452633,0 -4.839464,-6.081834 -7.049727,-10.776837 -2.210263,-4.695003 -5.243957,-10.357898 -3.178156,-12.293684 2.065801,-1.935786 4.420526,-1.661308 10.083421,-1.791324 5.807357,-0.144462 8.841051,0.144462 10.227883,2.759217 1.300155,2.455848 -1.43017,7.237527 -3.178156,11.470253 -1.935785,4.680556 -3.871571,10.632375 -6.905265,10.632375 z"
   id="path7158" />
<linearGradient
   id="SVGID_2_"
   gradientUnits="userSpaceOnUse"
   x1="60.6284"
   y1="76.6649"
   x2="61.0103"
   y2="46.1064">
	<stop
   offset="0.1909"
   style="stop-color:#27A0E2"
   id="stop7160" />
	<stop
   offset="0.4261"
   style="stop-color:#80C7EE;stop-opacity:0.8729"
   id="stop7162" />
	<stop
   offset="0.746"
   style="stop-color:#FFFFFF;stop-opacity:0.7"
   id="stop7164" />
</linearGradient>

<path
   style="fill:#1565c4"
   d="m 14.672941,62.368932 0.55,-4.9 c 0,0 4.29,6.21 8.78,8.41 5,2.44 10.13,3.51 16.88,0.36 6.15,-2.86 8.52,-11.11 11.35,-13.83 0.96,-0.92 2.62,-2.2 5.78,-2.11 2.12,0.06 4.05,0.9 4.92,1.67 3.8,3.39 6.02,11.89 10.52,14.38 5.68,3.14 12.49,3.12 18.12,-0.39 5.64,-3.51 8.23,-7.21 8.23,-7.21 l -0.28,7.76 -8.97,9.06 -16.72,-2.11 -6.1,-6.38 -7.12,-9.06 c 0,0 -7.21,0 -7.39,0.28 -0.18,0.28 -6.56,9.8 -6.56,9.8 l -6.75,6.47 c 0,0 -11,1.02 -11.92,0.28 -0.92,-0.74 -10.07,-5.55 -10.07,-5.55 z"
   id="path7169" />
<path
   style="fill:#81d7ff"
   d="m 98.202941,37.298932 c -3.38,-1.87 -8.19,-2.8 -14.88,-2.69 -6.68,0.11 -55.19,-0.32 -58.21,-0.22 -3.02,0.11 -6.58,1.19 -8.84,2.8 -4.599999,3.29 -5.919999,9.7 -6.139999,16.82 -0.2700004,8.51 4.619999,24 22.299999,24.1 12.78,0.07 16.37,-8.43 19.58,-13.67 1.48,-2.41 2.65,-5.07 5.86,-4.98 3.45,0.1 4.27,2.56 5.36,4.49 3.1,5.53 6.12,14.42 20.08,14.34 15.52,-0.08 21.469999,-15.08 21.769999,-24.77 0.25,-8.72 -3.11,-14.13 -6.879999,-16.22 z m 1.4,16.71 c -0.43,7.65 -4.43,18.62 -16.06,19.08 -10.89,0.43 -13.8,-6.04 -15.42,-8.3 -1.62,-2.26 -4.5,-6.78 -6.05,-8.1 -2.16,-1.83 -7.19,-1.2 -8.7,0.1 -1.92,1.64 -4.03,5.14 -6.28,8.36 -3.77,5.39 -6.24,7.52 -13.89,7.84 -7.65,0.32 -13.91,-4.2 -16.39,-11.53 -2.92,-8.63 -1.29,-16.06 3.67,-19.73 2.4,-1.77 4.64,-2.48 7.01,-2.59 2.37,-0.11 55.84,-0.32 61.77,0.22 5.93,0.54 10.769999,7 10.34,14.65 z"
   id="path7171" />
</svg>

<?xml version="1.0" encoding="UTF-8" standalone="no"?>
<!DOCTYPE svg PUBLIC "-//W3C//DTD SVG 1.1//EN" "http://www.w3.org/Graphics/SVG/1.1/DTD/svg11.dtd">
<svg width="100%" height="100%" viewBox="0 0 128 128" version="1.1" xmlns="http://www.w3.org/2000/svg" xmlns:xlink="http://www.w3.org/1999/xlink" xml:space="preserve" xmlns:serif="http://www.serif.com/" style="fill-rule:evenodd;clip-rule:evenodd;stroke-linejoin:round;stroke-miterlimit:2;">
    <path id="path7142" d="M69.84,111.803C69.84,111.803 80.87,110.933 91.01,101.393C106.46,86.863 111.08,61.773 112.41,51.043C114.01,38.113 110.24,27.243 110.24,27.243L118.48,24.493C118.48,24.493 122.25,35.293 120.65,53.903C119.39,68.553 112.41,94.413 97.99,107.573C85.09,119.343 68.7,121.073 68.7,121.073L69.84,111.803Z" style="fill:rgb(90,129,142);fill-rule:nonzero;"/>
    <path id="path7144" d="M110.58,58.253C110.58,58.253 112.56,58.843 113.9,59.173C116.07,59.703 120.05,60.633 120.41,61.423C121.15,63.073 118.94,72.443 117.34,72.563C115.74,72.673 112.08,71.763 110.7,70.843C109.32,69.923 110.58,58.253 110.58,58.253Z" style="fill:rgb(62,82,89);fill-rule:nonzero;"/>
    <path id="path7146" d="M84.35,105.043C84.35,105.043 82.68,103.913 81.25,105.043C79.84,106.153 80.35,107.973 81.19,109.523C82.03,111.073 85.07,115.493 85.97,116.273C86.87,117.053 88.21,117.093 89.03,116.603C90.6,115.663 90.07,113.873 90.07,113.873C90.07,113.873 91.5,115.143 93.19,114.203C94.97,113.213 94.36,111.373 94.36,111.373C94.36,111.373 96.12,112.313 97.65,111.143C99.07,110.053 98.72,108.503 98.72,108.503C98.72,108.503 100.35,109.123 101.81,107.563C103.1,106.183 102.3,104.603 102.3,104.603C102.3,104.603 103.63,105.093 104.68,103.853C105.88,102.423 105.01,100.863 104.35,100.203C103.69,99.543 99.14,94.923 97.29,94.153C96.65,93.883 95.6,93.833 94.85,94.513C93.66,95.583 94.59,97.113 94.59,97.113C94.59,97.113 93.15,96.163 91.95,97.243C90.7,98.373 91.57,100.163 91.57,100.163C91.57,100.163 90.04,98.723 88.52,99.803C87.32,100.663 88.04,102.493 88.04,102.493C88.04,102.493 86.57,101.223 85.11,102.313C83.68,103.383 84.35,105.043 84.35,105.043Z" style="fill:rgb(147,177,187);fill-rule:nonzero;"/>
    <path id="path7148" d="M99.97,9.373C99.73,11.073 106.26,25.703 106.58,26.463C107.1,27.703 110.34,31.253 115.48,28.953C119.87,26.993 118.81,22.133 118.62,21.423C117.9,18.743 113.45,4.863 111.81,4.533C110.44,4.253 100.16,7.993 99.97,9.373Z" style="fill:rgb(134,168,180);fill-rule:nonzero;"/>
    <path id="path7150" d="M66.551,122.457C66.67,122.908 67.064,123.246 67.594,123.125C68.125,123.005 75.22,121.022 75.553,120.911C75.887,120.8 76.103,120.347 75.929,119.685L73.63,110.953C73.511,110.501 73.116,110.164 72.586,110.284C72.055,110.405 64.96,112.388 64.627,112.499C64.294,112.61 64.077,113.063 64.251,113.725L66.551,122.457Z" style="fill:rgb(62,82,89);fill-rule:nonzero;"/>
    <path id="path7154" d="M11.293,45.099C11.293,45.099 12.373,38.089 15.703,34.969C18.203,32.629 21.423,31.689 25.123,31.419C28.823,31.139 85.013,31.159 89.363,31.239C94.443,31.329 98.743,34.139 100.913,36.789C103.453,39.889 104.403,45.799 104.403,47.369C104.403,48.939 95.273,38.359 95.273,38.359L78.033,36.659L24.853,35.849L11.293,45.099Z" style="fill:rgb(239,108,0);fill-rule:nonzero;"/>
    <path id="path7158" d="M57.949,83.467C54.496,83.467 53.109,77.385 50.899,72.69C48.689,67.995 45.655,62.332 47.721,60.396C49.787,58.46 52.141,58.735 57.804,58.605C63.612,58.46 66.645,58.749 68.032,61.364C69.332,63.82 66.602,68.601 64.854,72.834C62.918,77.515 60.983,83.467 57.949,83.467Z" style="fill:rgb(101,147,162);fill-rule:nonzero;"/>
    <path id="path7169" d="M14.673,62.369L15.223,57.469C15.223,57.469 19.513,63.679 24.003,65.879C29.003,68.319 34.133,69.389 40.883,66.239C47.033,63.379 49.403,55.129 52.233,52.409C53.193,51.489 54.853,50.209 58.013,50.299C60.133,50.359 62.063,51.199 62.933,51.969C66.733,55.359 68.953,63.859 73.453,66.349C79.133,69.489 85.943,69.469 91.573,65.959C97.213,62.449 99.803,58.749 99.803,58.749L99.523,66.509L90.553,75.569L73.833,73.459L67.733,67.079L60.613,58.019C60.613,58.019 53.403,58.019 53.223,58.299C53.043,58.579 46.663,68.099 46.663,68.099L39.913,74.569C39.913,74.569 28.913,75.589 27.993,74.849C27.073,74.109 17.923,69.299 17.923,69.299L14.673,62.369Z" style="fill:rgb(239,108,0);fill-rule:nonzero;"/>
    <path id="path7171" d="M98.203,37.299C94.823,35.429 90.013,34.499 83.323,34.609C76.643,34.719 28.133,34.289 25.113,34.389C22.093,34.499 18.533,35.579 16.273,37.189C11.673,40.479 10.353,46.889 10.133,54.009C9.863,62.519 14.753,78.009 32.433,78.109C45.213,78.179 48.803,69.679 52.013,64.439C53.493,62.029 54.663,59.369 57.873,59.459C61.323,59.559 62.143,62.019 63.233,63.949C66.333,69.479 69.353,78.369 83.313,78.289C98.833,78.209 104.783,63.209 105.083,53.519C105.333,44.799 101.973,39.389 98.203,37.299ZM99.603,54.009C99.173,61.659 95.173,72.629 83.543,73.089C72.653,73.519 69.743,67.049 68.123,64.789C66.503,62.529 63.623,58.009 62.073,56.689C59.913,54.859 54.883,55.489 53.373,56.789C51.453,58.429 49.343,61.929 47.093,65.149C43.323,70.539 40.853,72.669 33.203,72.989C25.553,73.309 19.293,68.789 16.813,61.459C13.893,52.829 15.523,45.399 20.483,41.729C22.883,39.959 25.123,39.249 27.493,39.139C29.863,39.029 83.333,38.819 89.263,39.359C95.193,39.899 100.033,46.359 99.603,54.009Z" style="fill:rgb(247,140,4);fill-rule:nonzero;"/>
</svg>
